tools/download-figma-icons/icons/outlined-large/contact-person.svg

<svg width="64" height="64" viewBox="0 0 64 64" fill="none" xmlns="http://www.w3.org/2000/svg">
<path fill-rule="evenodd" clip-rule="evenodd" d="M25.2142 36.8894C25.214 36.8892 25.2137 36.8889 25.2132 36.8889L24.2342 39.6449L31.0072 46.4049L37.7782 39.6449L36.8162 36.9309C35.2852 37.6389 33.6562 38.0379 32.0072 38.0379H30.0062C28.3862 38.0379 26.7562 37.6189 25.2152 36.8899C25.2147 36.8899 25.2145 36.8897 25.2142 36.8894ZM20.0042 23.0599V25.0569C20.0042 29.6209 24.9052 35.0429 30.0062 35.0429H32.0072C37.1282 35.0429 42.0092 29.6209 42.0092 25.0569V23.0599C42.0092 23.0599 44.0102 23.0399 44.0102 21.0629V19.0659C44.0102 18.0679 43.5202 17.5689 43.0202 17.3189C42.5292 17.0689 42.0292 17.0689 42.0092 17.0689C46.7402 10.2199 39.2782 3.08991 39.2782 3.08991C39.2782 3.08991 36.9182 7.65291 27.4562 7.65291C19.2045 7.65291 19.6806 13.0859 19.9349 15.9873C19.9719 16.4097 20.0042 16.7784 20.0042 17.0689C18.0028 17.0887 18.003 18.3043 18.0032 19.0454L18.0032 19.0659V20.0349V21.0629C18.0032 23.0199 19.8342 23.0599 19.9942 23.0599H20.0042ZM32.0672 49.5819C31.7752 49.8739 31.3912 50.0209 31.0072 50.0209C30.6232 50.0209 30.2382 49.8739 29.9452 49.5819L22.1462 41.7959L13.0662 45.4599C11.0892 46.2359 9.69222 47.8229 9.31722 49.7109L5.95322 62.8729C5.78022 63.5499 5.17022 63.9999 4.50122 63.9999C4.33922 63.9999 4.17622 63.9749 4.01222 63.9179C3.25622 63.6579 2.87322 62.8079 3.07122 62.0349L6.39222 49.0489C6.94822 46.2339 9.03522 43.8219 11.9542 42.6769L21.3162 38.8999L22.5072 35.5409C22.5392 35.4519 22.5792 35.3709 22.6252 35.2919H22.6242C19.3632 32.8059 17.0242 28.9419 17.0032 25.1069C15.8332 24.2789 15.0032 22.9099 15.0032 21.0629V19.0459C15.0032 17.0689 15.7632 15.7709 16.8532 15.0019C16.7432 12.9059 16.9032 9.95991 19.0242 7.65291C20.8542 5.66591 23.6852 4.65791 27.4562 4.65791C34.2772 4.65791 36.3582 2.07091 36.6382 1.66191C37.0282 0.782906 37.7782 0.243906 38.7292 0.0549062C38.8992 0.0139062 39.0682 0.00390625 39.2292 0.00390625C40.0192 0.00390625 40.7692 0.363906 41.3592 0.922906C44.1402 3.58891 48.1102 9.71991 45.9502 15.9109C46.6012 16.7099 47.0112 17.7679 47.0112 19.0659V21.0629C47.0112 22.9009 46.1702 24.2589 45.0102 25.0879C45.0002 29.0119 42.6802 32.8759 39.4192 35.3529C39.4185 35.3529 39.4183 35.3529 39.4179 35.3532C39.4177 35.3534 39.4175 35.3536 39.4172 35.3539C39.4232 35.3654 39.4293 35.377 39.4354 35.3886C39.4612 35.4375 39.4876 35.4876 39.5062 35.5409L40.9232 39.5349C41.1162 40.0789 40.9792 40.6859 40.5692 41.0939L32.0672 49.5819ZM35.7741 59.9002C34.3691 58.7262 34.0291 57.9232 34.0071 57.6682C34.3901 57.1602 35.9351 55.6072 37.9711 54.2642C38.3641 54.0029 38.5984 53.8863 38.7088 53.8314C38.7661 53.8029 38.7899 53.791 38.7851 53.7842C38.9951 53.8832 39.5171 54.4462 39.9771 54.9442L40.4271 55.4302C41.3121 56.3602 42.3141 56.8122 43.4031 56.7572C45.5261 56.6582 47.4401 54.7302 50.0281 51.4392C52.6431 48.1362 54.0881 45.8152 53.7431 43.7242C53.5681 42.6552 52.9421 41.7652 51.8821 41.0782L51.3711 40.7492L51.3363 40.7268C50.75 40.3505 50.0982 39.9321 50.0011 39.7732C49.9961 39.7502 49.9671 39.5212 50.2611 38.7092C51.1241 36.4242 52.2801 34.5682 52.7071 34.0402C52.9121 34.0462 53.6471 34.1622 55.0681 35.3522C57.2021 37.1562 59.2181 43.1242 51.5801 52.8032L51.4201 53.0332C46.2981 59.4312 42.0391 60.7492 39.9451 60.9642C38.2771 61.1312 36.7961 60.7572 35.7741 59.9002ZM33.8471 62.1962C35.2551 63.3752 37.1181 64.0002 39.1761 64.0002C39.5291 64.0002 39.8881 63.9812 40.2511 63.9442C43.4071 63.6222 48.3391 61.7582 53.9151 54.7142L54.0851 54.4702L54.0861 54.4662C59.5121 47.4902 62.7121 37.8832 57.0021 33.0622L56.9971 33.0572C53.1141 29.8062 51.1181 31.3472 50.6001 31.8982C49.8201 32.7242 48.3961 35.1592 47.4471 37.6712C46.2911 40.8632 47.5051 41.8332 49.7521 43.2722L50.2491 43.5912C50.7341 43.9042 50.7701 44.1272 50.7831 44.2102C50.9811 45.4042 48.5791 48.4392 47.6721 49.5832C46.8701 50.6052 44.4291 53.7102 43.2641 53.7642C43.1871 53.7722 42.9921 53.7762 42.6111 53.3742L42.1801 52.9112C40.5641 51.1632 39.2851 49.7882 36.3121 51.7682C34.1181 53.2162 32.0821 55.1362 31.4531 56.0882C31.0441 56.7092 30.0071 58.9832 33.8471 62.1962Z" fill="black"/>
</svg>

<svg xmlns="http://www.w3.org/2000/svg" width="64" height="64" fill="none" viewBox="0 0 64 64"><path fill="currentColor" fill-rule="evenodd" d="m25.214 36.89-.98 2.756 6.773 6.76 6.771-6.76-.962-2.714c-1.53.708-3.16 1.107-4.809 1.107h-2c-1.62 0-3.25-.42-4.792-1.148m-5.21-13.83v1.997c0 4.564 4.901 9.986 10.002 9.986h2.001c5.121 0 10.002-5.422 10.002-9.986V23.06s2.001-.02 2.001-1.997v-1.997c0-.998-.49-1.497-.99-1.747-.49-.25-.99-.25-1.01-.25 4.73-6.85-2.732-13.98-2.732-13.98s-2.36 4.564-11.822 4.564c-8.251 0-7.775 5.433-7.521 8.334.037.423.07.791.07 1.082-2.002.02-2.002 1.235-2.002 1.976v2.018c0 1.957 1.831 1.997 1.991 1.997zm12.063 26.522a1.5 1.5 0 0 1-2.122 0l-7.799-7.786-9.08 3.664c-1.977.776-3.374 2.363-3.749 4.25L5.953 62.874a1.5 1.5 0 0 1-1.94 1.045c-.757-.26-1.14-1.11-.942-1.883L6.392 49.05c.556-2.815 2.643-5.227 5.562-6.372l9.362-3.777 1.191-3.36q.049-.132.118-.248c-3.262-2.486-5.6-6.35-5.622-10.185-1.17-.828-2-2.197-2-4.044v-2.017c0-1.977.76-3.275 1.85-4.044-.11-2.096.05-5.042 2.171-7.35 1.83-1.986 4.661-2.994 8.432-2.994 6.821 0 8.902-2.587 9.182-2.996.39-.88 1.14-1.418 2.091-1.607.17-.041.34-.051.5-.051.79 0 1.54.36 2.13.919C44.14 3.589 48.11 9.72 45.95 15.91c.651.799 1.061 1.857 1.061 3.155v1.997c0 1.838-.84 3.196-2 4.025-.01 3.924-2.33 7.788-5.592 10.265h-.001l.017.036c.026.048.053.099.071.152l1.417 3.994a1.49 1.49 0 0 1-.354 1.559zM35.774 59.9c-1.405-1.174-1.745-1.977-1.767-2.232.383-.508 1.928-2.06 3.964-3.404a6 6 0 0 1 .738-.433c.057-.028.08-.04.076-.047.21.1.732.662 1.192 1.16l.45.486c.885.93 1.887 1.382 2.976 1.327 2.123-.099 4.037-2.027 6.625-5.318 2.615-3.303 4.06-5.624 3.715-7.715-.175-1.069-.8-1.959-1.86-2.646l-.512-.329-.035-.022c-.586-.377-1.238-.795-1.335-.954-.005-.023-.034-.252.26-1.064.863-2.285 2.02-4.14 2.446-4.669.205.006.94.122 2.361 1.312 2.134 1.804 4.15 7.772-3.488 17.451l-.16.23c-5.122 6.398-9.38 7.716-11.475 7.931-1.668.167-3.149-.207-4.17-1.064m-1.927 2.296c1.408 1.18 3.271 1.804 5.33 1.804q.529 0 1.074-.056c3.156-.322 8.088-2.186 13.664-9.23l.17-.244.001-.004c5.426-6.976 8.626-16.583 2.916-21.404l-.005-.005c-3.883-3.25-5.879-1.71-6.397-1.159-.78.826-2.204 3.261-3.153 5.773-1.156 3.192.058 4.162 2.305 5.601l.497.32c.485.312.521.535.534.618.198 1.194-2.204 4.23-3.11 5.373-.803 1.022-3.244 4.127-4.409 4.181-.077.008-.272.012-.653-.39l-.43-.463c-1.617-1.748-2.896-3.123-5.869-1.143-2.194 1.448-4.23 3.368-4.859 4.32-.409.621-1.446 2.895 2.394 6.108" clip-rule="evenodd"/></svg>
